X: 1
T: String Quartet in G Minor opus 74 no 3 mvt 3
C: Franz Joseph Haydn
%%abc-version 2.0
%%abcx-abcm2ps-target-version 5.9.1 (29 Sep 2008)
%%abc-creator hum2abc beta
%%abcx-conversion-date 2021/02/14 14:38:29
%%abc-copyright Copyright (c) 1994, 2000 Center for Computer Assisted Research in the Humanities
%%abc-edited-by Frances Bennion
%%abcx-initial-encoding-date 1997/04/15
%%gracespace 0 6 6
%%humdrum-veritas 1753053874
%%humdrum-veritas-data 836547267
%%linebreak <none>
%%barnumbers 0
L: 1/4
M: 3/4
N: Derived from op74n3-03.krn
Q: "Menuetto: Allegretto"
%%staves [1 2 3 4]
V: 1
V: 2
V: 3 clef=alto
V: 4 clef=bass
K: G
[V:1]z2 e [I:setbarnb1] |
[V:2]z2 c |
[V:3]z2 F |
[V:4]z3 |
[V:1]d c B |
[V:2]B A G |
[V:3]G ^D E |
[V:4]z3 |
[V:1]A G F |
[V:2]E D D |
[V:3]C B, A, |
[V:4]C, D, C, |
[V:1]G/D/ A/D/ B/D/ |
[V:2]D3 |
[V:3]G, F, G, |
[V:4]B,, A,, G,, |
[V:1]c z2 |
[V:2]D z2 |
[V:3]A, z E |
[V:4]F,, z C |
[V:1]z z e |
[V:2]z z E |
[V:3]D C B, |
[V:4]B, A, G, |
[V:1]d ^c d |
[V:2]D ^C D |
[V:3]A, G, A, |
[V:4]F, E, F, |
[V:1]e/b/ d/a/ A/^c/ |
[V:2]E/B/ D/A/ A,/^C/ |
[V:3]B, F, G,/E,/ |
[V:4]G, A, A,, |
[V:1]d z e |
[V:2]D z G |
[V:3]D, z A |
[V:4]D, z ^C |
[V:1]f g a |
[V:2]A B c |
[V:3]D2 C |
[V:4]C B, A, |
[V:1]b c' ^g |
[V:2]d2 B |
[V:3]B, A, =F |
[V:4]G, F, D |
[V:1]a b c' |
[V:2]c d e |
[V:3]E D C |
[V:4]C B, A, |
[V:1]d' e' c' |
[V:2]e3 |
[V:3]B,2 C |
[V:4]^G,2 A, |
[V:1]d' b c' |
[V:2]d2 a |
[V:3]A, B, E |
[V:4]F, G, C, |
[V:1]b a g |
[V:2]g f e |
[V:3]D2 z |
[V:4]D,2 z |
[V:1]f e d |
[V:2]d c B |
[V:3]z3 |
[V:4]z3 |
[V:1]^c d e |
[V:2]^A B c |
[V:3]z3 |
[V:4]z3 |
[V:1]d c B |
[V:2]B A G |
[V:3]z3 |
[V:4]z3 |
[V:1]A B z |
[V:2]D G E |
[V:3]z z C |
[V:4]z3 |
[V:1]z3 |
[V:2]D C B, |
[V:3]B, A, G, |
[V:4]z3 |
[V:1]z z G |
[V:2]A, B, G |
[V:3]D, G, z |
[V:4]z z E, |
[V:1]A2 B |
[V:2]G F ^G |
[V:3]z z D |
[V:4]D, C, B,, |
[V:1]c d e |
[V:2]A B c |
[V:3]C B, A, |
[V:4]A,, G,, F,, |
[V:1]d/B/ g/d/ b/g/ |
[V:2]B d g |
[V:3]B, z2 |
[V:4]G,, G,, G,, |
[V:1]d' d' d' |
[V:2]b b b |
[V:3]z3 |
[V:4]G,/D,/ B,/G,/ D/z/ |
[V:1]d' d' d' |
[V:2]c' c' c' |
[V:3]F/D/ A/F/ c/z/ |
[V:4]z3 |
[V:1]d' d' d' |
[V:2]b b b |
[V:3]z3 |
[V:4]G,,/D,,/ B,,/G,,/ D,/z/ |
[V:1]d' d' d' |
[V:2]c' c' c' |
[V:3]F,/D,/ A,/F,/ C/z/ |
[V:4]z3 |
[V:1]b/d'/ g/b/ e/g/ |
[V:2]b g e |
[V:3]B G E |
[V:4]B, G, E, |
[V:1]c/e/ A/c/ F/A/ |
[V:2]c A F |
[V:3]C A, F, |
[V:4]C, A,, F,, |
[V:1]D/F/ A/F/ G/d/ |
[V:2]D3 |
[V:3]D, F,/A,/ G, |
[V:4]D,, C, B,, |
[V:1]D/F/ A/F/ G/d/ |
[V:2]z D D |
[V:3]z F,/A,/ G, |
[V:4]z C, B,, |
[V:1]D/F/ A/F/ G/g/ |
[V:2]z D D/d/ |
[V:3]z F,/A,/ G,/B,/ |
[V:4]z C, B,, |
[V:1]e/A/ d/G/ c/F/ |
[V:2]e/A/ d/G/ c/F/ |
[V:3]C z F,/A,/ |
[V:4]C,2 D, |
[V:1]G z D |
[V:2]G z2 |
[V:3]G, z2 |
[V:4]G, G,, z |
[V:1]d d d |
[V:2]z z _B, |
[V:3]z z G, |
[V:4]z3 |
[V:1]d d d |
[V:2]_B A _A |
[V:3]G F =F |
[V:4]z3 |
[V:1]_e g/e/ ^c |
[V:2]G3 |
[V:3]_E2 _E, |
[V:4]z3 |
[V:1]d A B |
[V:2]F2 ^G |
[V:3]D, D D |
[V:4]z3 |
[V:1]c G A |
[V:2]A E F |
[V:3]D D D |
[V:4]z z D,, |
[V:1]_B3 |
[V:2]G3 |
[V:3]D3 |
[V:4]G,, G,, G,, |
[V:1]B2 z |
[V:2]=F3 |
[V:3]D3 |
[V:4]G,, D,/B,,/ ^G,, |
[V:1]A/a/ =f/d/ A/=F/ |
[V:2][D3=F3] |
[V:3]=F,3 |
[V:4]A,,3- |
[V:1]E/_B/ G/E/ ^C/A,/ |
[V:2][E3^C3] |
[V:3]G,3 |
[V:4]A,,3 |
[V:1]D z =f |
[V:2]D z d |
[V:3]=F, z A, |
[V:4]=F,,/A,/ =F,/D,/ A,,/F,,/ |
[V:1]e z a |
[V:2]d z E/^c/ |
[V:3]_B, z G, |
[V:4]G,,/_B,/ G,/E,/ ^C,/A,,/ |
[V:1]d z _B, |
[V:2]d z2 |
[V:3]=F, z2 |
[V:4]D, z2 |
[V:1]_B B B |
[V:2]z z _E |
[V:3]z z C, |
[V:4]z3 |
[V:1]_B A _A |
[V:2]_e e e |
[V:3]C C C |
[V:4]z3 |
[V:1]G3 |
[V:2]_e d =e |
[V:3]B,2 _B, |
[V:4]z3 |
[V:1]c _B A |
[V:2]=f ^f2 |
[V:3]A, D C |
[V:4]z z D, |
[V:1]G A B |
[V:2]g2 =f |
[V:3]_B, C D |
[V:4]_E,2 D, |
[V:1]c3- |
[V:2]_e3 |
[V:3]_E G =F- |
[V:4]C, _E,/C,/ A,, |
[V:1]c _B B- |
[V:2]d3 |
[V:3]F =F G/E/ |
[V:4]_B,, D/_B,/ G,/E,/ |
[V:1]B A =F |
[V:2]c3 |
[V:3]=F3 |
[V:4]=F,3- |
[V:1]g/=f/ _e/c/ A/_E/ |
[V:2][_E3A3] |
[V:3]C3 |
[V:4]F,3- |
[V:1]D/g/ =f/d/ _B/=F/ |
[V:2][D3_B3] |
[V:3]D3 |
[V:4]F,3- |
[V:1]E/_b/ g/e/ _d/_B/ |
[V:2][_B,3E3] |
[V:3]_D3 |
[V:4]F,3- |
[V:1]A/_e/ c/A/ =F/_E/ |
[V:2][A,/=F/]_e/c/ A/F/ _E/|
[V:3]C/_e/ c/A/ =F/_E/ |
[V:4]F,/_E/ C/A,/ =F,/_E,/ |
[V:1]D/_B/ _E/c/ =F/d/ |
[V:2]D/_B/ _E/c/ =F/d/ |
[V:3]D/_B/ _E/c/ =F/d/ |
[V:4]D,/_B,/ _E,/C/ =F,/D/ |
[V:1]G/_e/ A/e/ d/_B/ |
[V:2]G/_e/ A/e/ d/_B/ |
[V:3]G/_e/ A/e/ d/_B/ |
[V:4]G,/_E/ A,/E/ D/_B,/ |
[V:1]G/c/ =F/_B/ _E/A/ |
[V:2]c/z/ _B/z/ A/z/ |
[V:3]G/z/ D/z/ C/z/ |
[V:4]_E, =F, F, |
[V:1]_B z D |
[V:2]_B z2 |
[V:3]D z2 |
[V:4]_B,, _B, z |
[V:1]d d d |
[V:2]z z _B, |
[V:3]z z G, |
[V:4]z3 |
[V:1]d d d |
[V:2]_B A _A |
[V:3]G F =F |
[V:4]z3 |
[V:1]_e g/e/ c |
[V:2]G3 |
[V:3]_E3 |
[V:4]z z G,, |
[V:1]B3 |
[V:2]=F _A/F/ D/F/ |
[V:3]D3 |
[V:4]G, G, G, |
[V:1]c3 |
[V:2]_E3 |
[V:3]C2 F |
[V:4]_A, C/A,/ F, |
[V:1]B _B A |
[V:2]D _D C |
[V:3]G2 =F- |
[V:4]G, E, =F, |
[V:1]_A G G |
[V:2]B, C ^C |
[V:3]F _E _B,- |
[V:4]D, _E, E, |
[V:1]G/d'/ _b/g/ d/_B/ |
[V:2]D _B B |
[V:3]B, G G |
[V:4]D,3- |
[V:1]A/_e/ c/A/ F/D/ |
[V:2]A A A |
[V:3]F F F |
[V:4]D,3 |
[V:1]G z _B |
[V:2]G z G |
[V:3]G z D |
[V:4]_B,,/D/ _B,/G,/ D,/B,,/ |
[V:1]A z d |
[V:2]G z A/F/ |
[V:3]_E z C |
[V:4]C,/_E,/ C,/A,,/ F,,/D,,/ |
[V:1]G z2 |]
[V:2]G z2 |]
[V:3]_B, z2 |]
[V:4]G,, z2 |]

